X:804
T:Maggie West's Waltz
C:M Green
S:Keith Dickson, Edinburgh
Z:Nigel Gatherer
M:3/4
L:1/8
K:G
G>A | A<B-B>B A>G | E>G-G2 G>A | B>d-d>g (3gab | b<a-a2 g>b |
g>e-e2 g>e | d2-d>B- (3BAG | A2-A>B A>G | A2-A>d G>A | 
A<B-B>B A>G | E>G-G2 G>A | B>d-d>g (3gab | b<a-a2-(3aga |
g>e-e2 g>e | e>d-d>B (3BAG | A2-A>B G>F | G2-G>d (3BAG |
A>G-G>d (3BAG | A>G-G>d (3BAG | A>B d>g (3gab | b<a-a2-(3aga |
g>e-e2 g>e | d2-d>B- (3BAG | A2-A>B A>G | A2-A>d (3BAG |
A>G-G>d (3BAG | A>G-G>d (3BAG | A>B d>g (3gab | b<a-a2 g>a |
g>e-e2 g>e | e>d-d>B (3BAG | A2-A>B G>F | G4 |]
<end>
<start>
